img/page/popular/10.svg

<svg width="64" height="64" viewBox="0 0 64 64" fill="none" xmlns="http://www.w3.org/2000/svg">
<g opacity="0.78">
<path d="M4 24.2667C4 17.1727 4 13.6257 5.38058 10.9161C6.59498 8.53273 8.53273 6.59498 10.9161 5.38058C13.6257 4 17.1727 4 24.2667 4H39.7333C46.8273 4 50.3743 4 53.0839 5.38058C55.4673 6.59498 57.405 8.53273 58.6194 10.9161C60 13.6257 60 17.1727 60 24.2667V39.7333C60 46.8273 60 50.3743 58.6194 53.0839C57.405 55.4673 55.4673 57.405 53.0839 58.6194C50.3743 60 46.8273 60 39.7333 60H24.2667C17.1727 60 13.6257 60 10.9161 58.6194C8.53273 57.405 6.59498 55.4673 5.38058 53.0839C4 50.3743 4 46.8273 4 39.7333V24.2667Z" fill="#1E252B"/>
<path d="M19.7334 32.8C11.9334 38.5408 10.4 46.9334 10.4 53.9334C10.7556 51.8445 12.3867 46.9467 16.0667 44.0667C21.5334 39.7884 31.5333 41.1978 42.4667 33.9334C53.4001 26.6689 54.4667 17.2 53.0667 9.93335C52.094 16.9451 48.7744 20.001 44.2 22.7334C34.2668 28.6667 28.0668 26.6667 19.7334 32.8Z" fill="url(#paint0_linear_50_198)"/>
<path d="M19.7334 32.8C11.9334 38.5408 10.4 46.9334 10.4 53.9334C10.7556 51.8445 12.3867 46.9467 16.0667 44.0667C21.5334 39.7884 31.5333 41.1978 42.4667 33.9334C53.4001 26.6689 54.4667 17.2 53.0667 9.93335C52.094 16.9451 48.7744 20.001 44.2 22.7334C34.2668 28.6667 28.0668 26.6667 19.7334 32.8Z" fill="url(#paint1_linear_50_198)"/>
<path d="M10.4933 51.0639C10.9213 44.739 12.975 37.774 19.7333 32.8C24.0777 29.6025 27.8422 28.6155 31.8582 27.5626C34.2018 26.9482 36.6311 26.3113 39.3112 25.1995C38.3334 26.1333 33.6871 28.3133 30.1825 29.7699C26.6871 31.2227 23.0018 32.7543 19.9334 34.8C13.777 38.9042 11.2737 46.045 10.4933 51.0639Z" fill="url(#paint2_linear_50_198)"/>
<path d="M10.4933 51.0639C10.9213 44.739 12.975 37.774 19.7333 32.8C24.0777 29.6025 27.8422 28.6155 31.8582 27.5626C34.2018 26.9482 36.6311 26.3113 39.3112 25.1995C38.3334 26.1333 33.6871 28.3133 30.1825 29.7699C26.6871 31.2227 23.0018 32.7543 19.9334 34.8C13.777 38.9042 11.2737 46.045 10.4933 51.0639Z" fill="url(#paint3_linear_50_198)"/>
<path d="M48.4355 28.7418C47.6689 29.4927 46.8141 30.1649 45.8668 30.7333C41.6001 33.2934 37.065 34.1189 32.6522 34.9223C29.1357 35.5624 25.6969 36.1884 22.5334 37.6667C15.4006 40.9998 11.0007 47.9324 10.4002 53.9322C10.4002 53.9324 10.4001 53.9327 10.4001 53.9329C10.4001 53.9318 10.4 53.9308 10.4 53.9297C10.4001 53.4717 10.4067 53.0078 10.4212 52.539C10.4575 51.7953 10.5344 50.9713 10.6616 50.0926C11.6033 45.1584 14.1644 38.646 19.9334 34.8C22.3756 33.1719 25.2084 31.8693 28.0254 30.673C30.5027 29.8597 32.7354 29.3535 34.8626 28.8712C38.2111 28.1121 41.2983 27.4122 44.6668 25.6667C51.7349 22.0041 53.5868 14.4776 53.089 10.0503C54.1458 15.6601 53.7186 22.5598 48.4355 28.7418Z" fill="url(#paint4_linear_50_198)"/>
<path d="M48.4353 28.7419C47.6687 29.4928 46.814 30.165 45.8667 30.7334C41.6 33.2934 37.0649 34.119 32.6521 34.9223C29.1357 35.5624 25.6968 36.1884 22.5334 37.6667C18.4313 39.5836 15.2331 42.691 13.1416 46.1268C14.987 43.5337 17.7983 40.637 21.2667 39.5334C24.6512 38.4565 27.8795 38.3452 31.2333 38.2296C32.1946 38.1965 33.1662 38.163 34.1547 38.1063C36.8189 37.1365 39.6109 35.8308 42.4666 33.9334C44.9281 32.2979 46.8895 30.5506 48.4353 28.7419Z" fill="url(#paint5_linear_50_198)"/>
<path d="M48.4353 28.7419C47.6687 29.4928 46.814 30.165 45.8667 30.7334C41.6 33.2934 37.0649 34.119 32.6521 34.9223C29.1357 35.5624 25.6968 36.1884 22.5334 37.6667C18.4313 39.5836 15.2331 42.691 13.1416 46.1268C14.987 43.5337 17.7983 40.637 21.2667 39.5334C24.6512 38.4565 27.8795 38.3452 31.2333 38.2296C32.1946 38.1965 33.1662 38.163 34.1547 38.1063C36.8189 37.1365 39.6109 35.8308 42.4666 33.9334C44.9281 32.2979 46.8895 30.5506 48.4353 28.7419Z" fill="url(#paint6_linear_50_198)"/>
<path d="M53.0889 10.0503C53.0816 10.0112 53.0741 9.97227 53.0666 9.93335C52.0939 16.9451 48.7744 20.001 44.2 22.7334C42.4671 23.7684 40.8479 24.5621 39.3111 25.1996C38.3331 26.1335 33.687 28.3134 30.1825 29.7699L30.1819 29.7701C29.4687 30.0666 28.7476 30.3663 28.0254 30.673C30.5027 29.8597 32.7353 29.3535 34.8625 28.8712C38.2111 28.1121 41.2982 27.4122 44.6667 25.6667C51.7349 22.0041 53.5867 14.4776 53.0889 10.0503Z" fill="url(#paint7_linear_50_198)"/>
<path d="M53.0889 10.0503C53.0816 10.0112 53.0741 9.97227 53.0666 9.93335C52.0939 16.9451 48.7744 20.001 44.2 22.7334C42.4671 23.7684 40.8479 24.5621 39.3111 25.1996C38.3331 26.1335 33.687 28.3134 30.1825 29.7699L30.1819 29.7701C29.4687 30.0666 28.7476 30.3663 28.0254 30.673C30.5027 29.8597 32.7353 29.3535 34.8625 28.8712C38.2111 28.1121 41.2982 27.4122 44.6667 25.6667C51.7349 22.0041 53.5867 14.4776 53.0889 10.0503Z" fill="url(#paint8_linear_50_198)"/>
</g>
<defs>
<linearGradient id="paint0_linear_50_198" x1="34.8" y1="36.4" x2="11.7334" y2="52.9333" gradientUnits="userSpaceOnUse">
<stop stop-color="#FE5004"/>
<stop offset="0.602538" stop-color="#FFB915"/>
<stop offset="1" stop-color="#FFFC41"/>
</linearGradient>
<linearGradient id="paint1_linear_50_198" x1="25.6667" y1="37.8" x2="25.8" y2="40.2" gradientUnits="userSpaceOnUse">
<stop stop-color="#FD3E00"/>
<stop offset="1" stop-color="#FD4400" stop-opacity="0"/>
</linearGradient>
<linearGradient id="paint2_linear_50_198" x1="39.3333" y1="24" x2="6.79999" y2="52.9333" gradientUnits="userSpaceOnUse">
<stop stop-color="#005FC6"/>
<stop offset="0.279756" stop-color="#23A4DF"/>
<stop offset="0.465158" stop-color="#3AC2B7"/>
<stop offset="0.640642" stop-color="#60EC7A"/>
<stop offset="0.818668" stop-color="#CFFDBD"/>
<stop offset="1" stop-color="#D0FCB6"/>
</linearGradient>
<linearGradient id="paint3_linear_50_198" x1="32.7333" y1="29.5333" x2="29.9333" y2="27" gradientUnits="userSpaceOnUse">
<stop stop-color="#0061CB"/>
<stop offset="1" stop-color="#067EEA" stop-opacity="0"/>
</linearGradient>
<linearGradient id="paint4_linear_50_198" x1="53.2" y1="10" x2="10.4" y2="53.8667" gradientUnits="userSpaceOnUse">
<stop stop-color="#8E55F1"/>
<stop offset="0.140795" stop-color="#8B48DF"/>
<stop offset="0.274905" stop-color="#E04DD9"/>
<stop offset="0.492309" stop-color="#F496C8"/>
<stop offset="0.633104" stop-color="#FAD2BA"/>
<stop offset="0.856964" stop-color="#FEF7E5"/>
<stop offset="1" stop-color="#FFF5BF"/>
</linearGradient>
<linearGradient id="paint5_linear_50_198" x1="48.9999" y1="28.3334" x2="14.0666" y2="44.1334" gradientUnits="userSpaceOnUse">
<stop stop-color="#F41A73"/>
<stop offset="0.399909" stop-color="#FC50A3"/>
<stop offset="0.584511" stop-color="#FE9485"/>
<stop offset="0.703104" stop-color="#FFAF88"/>
<stop offset="1" stop-color="#FFC385"/>
</linearGradient>
<linearGradient id="paint6_linear_50_198" x1="36.3999" y1="33.2" x2="36.4666" y2="36.4" gradientUnits="userSpaceOnUse">
<stop stop-color="#9B0008"/>
<stop offset="1" stop-color="#EA115A" stop-opacity="0"/>
</linearGradient>
<linearGradient id="paint7_linear_50_198" x1="53.2" y1="13.6" x2="21.6666" y2="34.2" gradientUnits="userSpaceOnUse">
<stop stop-color="#231283"/>
<stop offset="0.362865" stop-color="#7053C6"/>
<stop offset="0.466353" stop-color="#7272DB"/>
<stop offset="0.634311" stop-color="#399EE9"/>
<stop offset="1" stop-color="#00CFFF"/>
</linearGradient>
<linearGradient id="paint8_linear_50_198" x1="45.3333" y1="24" x2="46.7333" y2="25.8" gradientUnits="userSpaceOnUse">
<stop stop-color="#3F259D" stop-opacity="0"/>
<stop offset="1" stop-color="#412DAA"/>
</linearGradient>
</defs>
</svg>

<svg width="64" height="64" fill="none" xmlns="http://www.w3.org/2000/svg"><g opacity=".78"><path d="M4 24.267c0-7.094 0-10.641 1.38-13.35a12.667 12.667 0 015.536-5.536C13.626 4 17.173 4 24.266 4h15.467c7.094 0 10.641 0 13.35 1.38a12.667 12.667 0 015.536 5.536C60 13.626 60 17.173 60 24.266v15.467c0 7.094 0 10.641-1.38 13.35a12.666 12.666 0 01-5.536 5.536C50.374 60 46.827 60 39.734 60H24.266c-7.094 0-10.641 0-13.35-1.38a12.667 12.667 0 01-5.536-5.536C4 50.374 4 46.827 4 39.734V24.266z" fill="#1E252B"/><path d="M19.733 32.8c-7.8 5.74-9.333 14.133-9.333 21.133.356-2.089 1.987-6.986 5.667-9.866 5.466-4.279 15.466-2.87 26.4-10.134 10.933-7.264 12-16.733 10.6-24-.973 7.012-4.293 10.068-8.867 12.8-9.933 5.934-16.133 3.934-24.467 10.067z" fill="url(#paint0_linear_50_198)"/><path d="M19.733 32.8c-7.8 5.74-9.333 14.133-9.333 21.133.356-2.089 1.987-6.986 5.667-9.866 5.466-4.279 15.466-2.87 26.4-10.134 10.933-7.264 12-16.733 10.6-24-.973 7.012-4.293 10.068-8.867 12.8-9.933 5.934-16.133 3.934-24.467 10.067z" fill="url(#paint1_linear_50_198)"/><path d="M10.493 51.064c.428-6.325 2.482-13.29 9.24-18.264 4.345-3.197 8.11-4.184 12.125-5.237 2.344-.615 4.773-1.252 7.453-2.363-.978.933-5.624 3.113-9.128 4.57-3.496 1.453-7.181 2.984-10.25 5.03-6.156 4.104-8.66 11.245-9.44 16.264z" fill="url(#paint2_linear_50_198)"/><path d="M10.493 51.064c.428-6.325 2.482-13.29 9.24-18.264 4.345-3.197 8.11-4.184 12.125-5.237 2.344-.615 4.773-1.252 7.453-2.363-.978.933-5.624 3.113-9.128 4.57-3.496 1.453-7.181 2.984-10.25 5.03-6.156 4.104-8.66 11.245-9.44 16.264z" fill="url(#paint3_linear_50_198)"/><path d="M48.435 28.742a13.86 13.86 0 01-2.568 1.991c-4.267 2.56-8.802 3.386-13.215 4.19-3.516.64-6.955 1.265-10.119 2.744C15.401 41 11.001 47.932 10.4 53.932v-.002c0-.458.007-.922.021-1.391.037-.744.113-1.568.24-2.446.942-4.935 3.503-11.447 9.272-15.293 2.443-1.628 5.275-2.93 8.092-4.127 2.478-.813 4.71-1.32 6.838-1.802 3.348-.759 6.435-1.459 9.804-3.204 7.068-3.663 8.92-11.19 8.422-15.617 1.057 5.61.63 12.51-4.654 18.692z" fill="url(#paint4_linear_50_198)"/><path d="M48.435 28.742a13.859 13.859 0 01-2.568 1.991c-4.267 2.56-8.802 3.386-13.215 4.19-3.516.64-6.955 1.265-10.119 2.744-4.102 1.917-7.3 5.024-9.391 8.46 1.845-2.593 4.656-5.49 8.125-6.594 3.384-1.077 6.613-1.188 9.966-1.303.962-.033 1.933-.067 2.922-.124 2.664-.97 5.456-2.275 8.312-4.173 2.461-1.635 4.422-3.382 5.968-5.191z" fill="url(#paint5_linear_50_198)"/><path d="M48.435 28.742a13.859 13.859 0 01-2.568 1.991c-4.267 2.56-8.802 3.386-13.215 4.19-3.516.64-6.955 1.265-10.119 2.744-4.102 1.917-7.3 5.024-9.391 8.46 1.845-2.593 4.656-5.49 8.125-6.594 3.384-1.077 6.613-1.188 9.966-1.303.962-.033 1.933-.067 2.922-.124 2.664-.97 5.456-2.275 8.312-4.173 2.461-1.635 4.422-3.382 5.968-5.191z" fill="url(#paint6_linear_50_198)"/><path d="M53.089 10.05l-.022-.117c-.973 7.012-4.293 10.068-8.867 12.8a37.454 37.454 0 01-4.889 2.467c-.978.934-5.624 3.113-9.128 4.57h-.001c-.713.297-1.434.596-2.157.903 2.478-.813 4.71-1.32 6.837-1.802 3.35-.759 6.436-1.459 9.805-3.204 7.068-3.663 8.92-11.19 8.422-15.617z" fill="url(#paint7_linear_50_198)"/><path d="M53.089 10.05l-.022-.117c-.973 7.012-4.293 10.068-8.867 12.8a37.454 37.454 0 01-4.889 2.467c-.978.934-5.624 3.113-9.128 4.57h-.001c-.713.297-1.434.596-2.157.903 2.478-.813 4.71-1.32 6.837-1.802 3.35-.759 6.436-1.459 9.805-3.204 7.068-3.663 8.92-11.19 8.422-15.617z" fill="url(#paint8_linear_50_198)"/></g><defs><linearGradient id="paint0_linear_50_198" x1="34.8" y1="36.4" x2="11.733" y2="52.933" gradientUnits="userSpaceOnUse"><stop stop-color="#FE5004"/><stop offset=".603" stop-color="#FFB915"/><stop offset="1" stop-color="#FFFC41"/></linearGradient><linearGradient id="paint1_linear_50_198" x1="25.667" y1="37.8" x2="25.8" y2="40.2" gradientUnits="userSpaceOnUse"><stop stop-color="#FD3E00"/><stop offset="1" stop-color="#FD4400" stop-opacity="0"/></linearGradient><linearGradient id="paint2_linear_50_198" x1="39.333" y1="24" x2="6.8" y2="52.933" gradientUnits="userSpaceOnUse"><stop stop-color="#005FC6"/><stop offset=".28" stop-color="#23A4DF"/><stop offset=".465" stop-color="#3AC2B7"/><stop offset=".641" stop-color="#60EC7A"/><stop offset=".819" stop-color="#CFFDBD"/><stop offset="1" stop-color="#D0FCB6"/></linearGradient><linearGradient id="paint3_linear_50_198" x1="32.733" y1="29.533" x2="29.933" y2="27" gradientUnits="userSpaceOnUse"><stop stop-color="#0061CB"/><stop offset="1" stop-color="#067EEA" stop-opacity="0"/></linearGradient><linearGradient id="paint4_linear_50_198" x1="53.2" y1="10" x2="10.4" y2="53.867" gradientUnits="userSpaceOnUse"><stop stop-color="#8E55F1"/><stop offset=".141" stop-color="#8B48DF"/><stop offset=".275" stop-color="#E04DD9"/><stop offset=".492" stop-color="#F496C8"/><stop offset=".633" stop-color="#FAD2BA"/><stop offset=".857" stop-color="#FEF7E5"/><stop offset="1" stop-color="#FFF5BF"/></linearGradient><linearGradient id="paint5_linear_50_198" x1="49" y1="28.333" x2="14.067" y2="44.133" gradientUnits="userSpaceOnUse"><stop stop-color="#F41A73"/><stop offset=".4" stop-color="#FC50A3"/><stop offset=".585" stop-color="#FE9485"/><stop offset=".703" stop-color="#FFAF88"/><stop offset="1" stop-color="#FFC385"/></linearGradient><linearGradient id="paint6_linear_50_198" x1="36.4" y1="33.2" x2="36.467" y2="36.4" gradientUnits="userSpaceOnUse"><stop stop-color="#9B0008"/><stop offset="1" stop-color="#EA115A" stop-opacity="0"/></linearGradient><linearGradient id="paint7_linear_50_198" x1="53.2" y1="13.6" x2="21.667" y2="34.2" gradientUnits="userSpaceOnUse"><stop stop-color="#231283"/><stop offset=".363" stop-color="#7053C6"/><stop offset=".466" stop-color="#7272DB"/><stop offset=".634" stop-color="#399EE9"/><stop offset="1" stop-color="#00CFFF"/></linearGradient><linearGradient id="paint8_linear_50_198" x1="45.333" y1="24" x2="46.733" y2="25.8" gradientUnits="userSpaceOnUse"><stop stop-color="#3F259D" stop-opacity="0"/><stop offset="1" stop-color="#412DAA"/></linearGradient></defs></svg>
